Sources/FrostedUI/Resources/Icons.xcassets/listNumber32.imageset/list-number-32.svg

<svg width="32" height="32" viewBox="0 0 32 32" fill="none" xmlns="http://www.w3.org/2000/svg" data-fui-icon="true">
  <path
    d="M7.47852 18.2502C8.96847 18.2502 10.3651 19.3177 10.3652 20.8517C10.3652 21.7266 9.93298 22.3866 9.4082 22.881C8.90001 23.3597 8.24524 23.7401 7.67773 24.0617C7.11937 24.378 6.64755 24.6384 6.28809 24.9162H10C10.414 24.9162 10.7497 25.2522 10.75 25.6662C10.75 26.0804 10.4142 26.4162 10 26.4162H5C4.58579 26.4162 4.25 26.0804 4.25 25.6662C4.2502 24.8388 4.73915 24.2469 5.24316 23.8302C5.7395 23.42 6.38917 23.0667 6.9375 22.756C7.52366 22.4239 8.0228 22.1256 8.37988 21.7892C8.72039 21.4684 8.86523 21.1765 8.86523 20.8517C8.86504 20.3404 8.34864 19.7502 7.47852 19.7502C7.07378 19.7502 6.67133 19.9091 6.3418 20.1017C6.18231 20.1949 6.05291 20.2887 5.96484 20.3576C5.92118 20.3917 5.88833 20.4192 5.86816 20.4367C5.85836 20.4452 5.85124 20.451 5.84766 20.4543H5.84668C5.54517 20.7381 5.07107 20.7244 4.78711 20.423C4.50343 20.1215 4.51802 19.6474 4.81934 19.3634L5.0127 19.5685L4.81934 19.3625L4.82227 19.3595C4.82356 19.3583 4.82544 19.3572 4.82715 19.3556C4.83075 19.3523 4.8354 19.3478 4.84082 19.3429C4.852 19.3328 4.8672 19.319 4.88574 19.3029C4.92295 19.2707 4.97493 19.2269 5.04004 19.1759C5.16978 19.0744 5.35579 18.9408 5.58496 18.8068C6.03294 18.5449 6.70323 18.2502 7.47852 18.2502ZM27 21.5832C27.4142 21.5832 27.7499 21.919 27.75 22.3332C27.75 22.7474 27.4142 23.0832 27 23.0832H15.667C15.2528 23.0832 14.917 22.7474 14.917 22.3332C14.9171 21.919 15.2528 21.5832 15.667 21.5832H27ZM5.84766 20.4552H5.84668V20.4562H5.8457L5.84668 20.4543L5.84766 20.4552ZM7.99219 5.66519C8.20631 5.55582 8.46268 5.55516 8.67969 5.66812C8.92764 5.79726 9.08294 6.0536 9.08301 6.33316V13.0002C9.08283 13.4142 8.74711 13.7502 8.33301 13.7502C7.91905 13.75 7.58318 13.4141 7.58301 13.0002V7.77359L5.42969 9.2814C5.09047 9.51845 4.62321 9.4358 4.38574 9.09683C4.1483 8.7575 4.23101 8.28942 4.57031 8.05191L7.90332 5.7189L7.99219 5.66519ZM27 8.91617C27.414 8.91617 27.7497 9.25218 27.75 9.66617C27.75 10.0804 27.4142 10.4162 27 10.4162H15.667C15.2528 10.4162 14.917 10.0804 14.917 9.66617C14.9173 9.25218 15.2529 8.91617 15.667 8.91617H27Z"
    fill="currentColor"
  />
</svg>

<svg xmlns="http://www.w3.org/2000/svg" width="32" height="32" fill="none" data-fui-icon="true" viewBox="0 0 32 32"><path fill="currentColor" d="M7.479 18.25c1.49 0 2.886 1.068 2.886 2.602 0 .875-.432 1.535-.957 2.029-.508.479-1.163.86-1.73 1.18-.559.317-1.03.577-1.39.855H10a.75.75 0 0 1 0 1.5H5a.75.75 0 0 1-.75-.75c0-.827.49-1.42.993-1.836.496-.41 1.146-.763 1.694-1.074.587-.332 1.086-.63 1.443-.967.34-.32.485-.613.485-.937 0-.512-.516-1.102-1.386-1.102-.405 0-.808.16-1.137.352a3.4 3.4 0 0 0-.474.335l-.02.017h-.001a.75.75 0 1 1-1.028-1.09l.194.204-.194-.206.003-.002.005-.004.014-.013.045-.04q.056-.05.154-.127c.13-.102.316-.235.545-.37.448-.261 1.118-.556 1.894-.556M27 21.583a.75.75 0 0 1 0 1.5H15.667a.75.75 0 0 1 0-1.5zM5.848 20.455h-.001v.001h-.001v-.002zm2.144-14.79a.75.75 0 0 1 1.091.668V13a.75.75 0 0 1-1.5 0V7.774L5.43 9.28a.75.75 0 0 1-.86-1.23L7.903 5.72zM27 8.916a.75.75 0 0 1 0 1.5H15.667a.75.75 0 0 1 0-1.5z"/></svg>
